packages/foundations/assets/icons/functional/images/arrows/arrow_down_16.svg

<svg width="16" height="16" viewBox="0 0 16 16" fill="none" xmlns="http://www.w3.org/2000/svg">
<g clip-path="url(#clip0_183_3767)">
<path fill-rule="evenodd" clip-rule="evenodd" d="M8.55 13.35C8.48235 13.4295 8.39798 13.4932 8.30291 13.5364C8.20784 13.5796 8.10441 13.6013 8 13.6C7.8 13.6 7.6 13.525 7.425 13.35L3.425 9.37498C3.27928 9.2191 3.19877 9.01335 3.2 8.79998C3.2 8.34998 3.55 7.99998 4 7.99998C4.2 7.99998 4.4 8.07498 4.55 8.22498L7.2 10.875V3.19998C7.2 2.74998 7.55 2.39998 8 2.39998C8.425 2.39998 8.8 2.74998 8.8 3.19998V10.875L11.425 8.22498C11.5832 8.08299 11.7874 8.00307 12 7.99998C12.425 7.99998 12.8 8.34998 12.8 8.79998C12.8015 8.98476 12.7374 9.16408 12.619 9.30598L8.55 13.35Z" fill="#1A1C1F"/>
</g>
<defs>
<clipPath id="clip0_183_3767">
<rect width="16" height="16" fill="white"/>
</clipPath>
</defs>
</svg>

<svg xmlns="http://www.w3.org/2000/svg" width="16" height="16" fill="none"><g clip-path="url(#a)"><path fill="#1A1C1F" fill-rule="evenodd" d="M8.55 13.35a.71.71 0 0 1-.55.25c-.2 0-.4-.075-.575-.25l-4-3.975A.84.84 0 0 1 3.2 8.8c0-.45.35-.8.8-.8.2 0 .4.075.55.225l2.65 2.65V3.2c0-.45.35-.8.8-.8.425 0 .8.35.8.8v7.675l2.625-2.65A.88.88 0 0 1 12 8c.425 0 .8.35.8.8a.78.78 0 0 1-.181.506z" clip-rule="evenodd"/></g><defs><clipPath id="a"><path fill="#fff" d="M0 0h16v16H0z"/></clipPath></defs></svg>
